svg/emoji_u1f47f.svg

<svg width="128" height="128" style="enable-background:new 0 0 128 128;" xmlns="http://www.w3.org/2000/svg" xmlns:xlink="http://www.w3.org/1999/xlink">
  <g>
    <g>
      <g>
        <path d="M64.46,24.82c-58.32,0-59.7,65.38-59.7,78.33c0,12.93,26.75,23.43,59.7,23.43 c32.99,0,59.7-10.5,59.7-23.43C124.17,90.2,122.79,24.82,64.46,24.82z" style="fill:#E75625;"/>
        <g>
          <path d="M83.92,40.16c0.71-2.01,2.2-3.9,4.43-5.65c1.82-1.43,3.75-2.83,5.25-4.61 c4.42-5.26,6.58-13.45,5.58-20.29c-0.23-1.53-1.72-4.48-0.71-5.87c1.75-2.38,6.08,0.08,7.47,1.45 c4.35,4.28,6.96,10.15,8.23,16.05c1.59,7.33,1.37,14.93-1.06,22.03c-2.02,5.88-6.87,11.69-13.12,13.07 c-5.36,1.19-11.15-2.35-14.11-6.56C83.49,46.36,82.87,43.13,83.92,40.16z" style="fill:#E75625;"/>
          <path d="M45.01,39.32c-0.71-2-2.18-3.89-4.43-5.65c-1.83-1.43-3.72-2.83-5.24-4.61 c-4.41-5.26-6.57-13.44-5.57-20.28c0.23-1.54,1.7-4.48,0.7-5.87C28.73,0.51,24.4,2.98,23,4.36 c-4.34,4.28-6.95,10.15-8.24,16.04c-1.57,7.32-1.36,14.93,1.08,22.03c2.01,5.88,6.88,11.69,13.12,13.08 c5.35,1.19,11.14-2.36,14.08-6.56C45.44,45.52,46.07,42.3,45.01,39.32z" style="fill:#E75625;"/>
        </g>
      </g>
      <g>
        <g>
          <defs>
            <path id="SVGID_1_" d="M38.06,89.86c-13.82-2.84-15.27-15.5-14.29-21l34.26,10.26C57.06,84.59,47.76,91.84,38.06,89.86z"/>
          </defs>
          <use style="overflow:visible;fill:#2F2F2F;" xlink:href="#SVGID_1_"/>
          <clipPath id="SVGID_2_">
            <use style="overflow:visible;" xlink:href="#SVGID_1_"/>
          </clipPath>
          <path d="M39.47,84.11c-9.17-1.79-9.99-11.04-8.65-14.68l21.47,6.8 C52.16,79.85,45.94,85.38,39.47,84.11z" style="clip-path:url(#SVGID_2_);fill:#FBB817;"/>
        </g>
        <g>
          <defs>
            <path id="SVGID_3_" d="M90.87,89.86c13.82-2.84,15.27-15.5,14.29-21L70.9,79.11C71.87,84.59,81.18,91.84,90.87,89.86z"/>
          </defs>
          <use style="overflow:visible;fill:#2F2F2F;" xlink:href="#SVGID_3_"/>
          <clipPath id="SVGID_4_">
            <use style="overflow:visible;" xlink:href="#SVGID_3_"/>
          </clipPath>
          <path d="M89.45,84.11c9.17-1.79,9.99-11.04,8.65-14.68l-21.46,6.8 C76.76,79.85,82.98,85.38,89.45,84.11z" style="clip-path:url(#SVGID_4_);fill:#FBB817;"/>
        </g>
      </g>
    </g>
    <path d="M63.18,98.3c0.63,0,1.31,0.03,1.98,0.06c15.84,0.95,21.84,9.54,22.09,9.9 c0.9,1.3,0.54,3.06-0.74,3.94c-1.29,0.88-3.03,0.54-3.92-0.73c-0.23-0.32-4.93-6.69-17.77-7.44c-12.8-0.74-18.38,7.62-18.45,7.7 c-0.83,1.31-2.6,1.69-3.91,0.84c-1.31-0.85-1.69-2.6-0.83-3.91C41.91,108.2,48.49,98.3,63.18,98.3z" style="fill:#2F2F2F;"/>
  </g>
</svg>

<?xml version="1.0" encoding="UTF-8" standalone="no"?>
<!DOCTYPE svg PUBLIC "-//W3C//DTD SVG 1.1//EN" "http://www.w3.org/Graphics/SVG/1.1/DTD/svg11.dtd">
<svg width="100%" height="100%" viewBox="0 0 128 128" version="1.1" xmlns="http://www.w3.org/2000/svg" xmlns:xlink="http://www.w3.org/1999/xlink" xml:space="preserve" xmlns:serif="http://www.serif.com/" style="fill-rule:evenodd;clip-rule:evenodd;stroke-linejoin:round;stroke-miterlimit:1.41421;">
    <path d="M64.46,24.82C6.14,24.82 4.76,90.2 4.76,103.15C4.76,116.08 31.51,126.58 64.46,126.58C97.45,126.58 124.16,116.08 124.16,103.15C124.17,90.2 122.79,24.82 64.46,24.82Z" style="fill:rgb(180,124,228);fill-rule:nonzero;"/>
    <path d="M83.92,40.16C84.63,38.15 86.12,36.26 88.35,34.51C90.17,33.08 92.1,31.68 93.6,29.9C98.02,24.64 100.18,16.45 99.18,9.61C98.95,8.08 97.46,5.13 98.47,3.74C100.22,1.36 104.55,3.82 105.94,5.19C110.29,9.47 112.9,15.34 114.17,21.24C115.76,28.57 115.54,36.17 113.11,43.27C111.09,49.15 106.24,54.96 99.99,56.34C94.63,57.53 88.84,53.99 85.88,49.78C83.49,46.36 82.87,43.13 83.92,40.16ZM45.01,39.32C44.3,37.32 42.83,35.43 40.58,33.67C38.75,32.24 36.86,30.84 35.34,29.06C30.93,23.8 28.77,15.62 29.77,8.78C30,7.24 31.47,4.3 30.47,2.91C28.73,0.51 24.4,2.98 23,4.36C18.66,8.64 16.05,14.51 14.76,20.4C13.19,27.72 13.4,35.33 15.84,42.43C17.85,48.31 22.72,54.12 28.96,55.51C34.31,56.7 40.1,53.15 43.04,48.95C45.44,45.52 46.07,42.3 45.01,39.32Z" style="fill:rgb(180,124,228);fill-rule:nonzero;"/>
    <path id="a" d="M38.06,89.86C24.24,87.02 22.79,74.36 23.77,68.86L58.03,79.12C57.06,84.59 47.76,91.84 38.06,89.86Z" style="fill:rgb(47,47,47);fill-rule:nonzero;"/>
    <clipPath id="_clip1">
        <path d="M38.06,89.86C24.24,87.02 22.79,74.36 23.77,68.86L58.03,79.12C57.06,84.59 47.76,91.84 38.06,89.86Z"/>
    </clipPath>
    <g clip-path="url(#_clip1)">
        <path d="M39.47,84.11C30.3,82.32 29.48,73.07 30.82,69.43L52.29,76.23C52.16,79.85 45.94,85.38 39.47,84.11Z" style="fill:rgb(251,184,23);fill-rule:nonzero;"/>
    </g>
    <path id="b" d="M90.87,89.86C104.69,87.02 106.14,74.36 105.16,68.86L70.9,79.11C71.87,84.59 81.18,91.84 90.87,89.86Z" style="fill:rgb(47,47,47);fill-rule:nonzero;"/>
    <clipPath id="_clip2">
        <path d="M90.87,89.86C104.69,87.02 106.14,74.36 105.16,68.86L70.9,79.11C71.87,84.59 81.18,91.84 90.87,89.86Z"/>
    </clipPath>
    <g clip-path="url(#_clip2)">
        <path d="M89.45,84.11C98.62,82.32 99.44,73.07 98.1,69.43L76.64,76.23C76.76,79.85 82.98,85.38 89.45,84.11Z" style="fill:rgb(251,184,23);fill-rule:nonzero;"/>
    </g>
    <path d="M63.18,98.3C63.81,98.3 64.49,98.33 65.16,98.36C81,99.31 87,107.9 87.25,108.26C88.15,109.56 87.79,111.32 86.51,112.2C85.22,113.08 83.48,112.74 82.59,111.47C82.36,111.15 77.66,104.78 64.82,104.03C52.02,103.29 46.44,111.65 46.37,111.73C45.54,113.04 43.77,113.42 42.46,112.57C41.657,112.052 41.17,111.159 41.17,110.203C41.17,109.655 41.33,109.119 41.63,108.66C41.91,108.2 48.49,98.3 63.18,98.3Z" style="fill:rgb(47,47,47);fill-rule:nonzero;"/>
</svg>
